public/assets/icons/file-video.svg

<svg width="45" height="45" viewBox="0 0 45 45" fill="none" xmlns="http://www.w3.org/2000/svg">
<path d="M22.6025 4.28125C12.4471 4.28125 4.20508 12.5233 4.20508 22.6787C4.20508 32.8341 12.4471 41.0761 22.6025 41.0761C32.7579 41.0761 41 32.8341 41 22.6787C41 12.5233 32.7579 4.28125 22.6025 4.28125ZM27.4962 25.8614L22.7865 28.5843C19.7509 30.332 17.2673 28.897 17.2673 25.4015V19.9559C17.2673 16.442 19.7509 15.0254 22.7865 16.7731L27.4962 19.4959C30.5318 21.2437 30.5318 24.1137 27.4962 25.8614Z" fill="#FF7474"/>
</svg>

<svg xmlns="http://www.w3.org/2000/svg" width="45" height="45" fill="none"><path fill="#FF7474" d="M22.603 4.281c-10.156 0-18.398 8.242-18.398 18.398s8.242 18.397 18.398 18.397S41 32.834 41 22.68C41 12.523 32.758 4.28 22.603 4.28m4.893 21.58-4.71 2.723c-3.035 1.748-5.519.313-5.519-3.183v-5.445c0-3.514 2.484-4.93 5.52-3.183l4.71 2.723c3.035 1.748 3.035 4.618 0 6.365"/></svg>
